!!!OTL: 51. Skotshne
!!!Genre:	Skotshne
!!!Mode:	Minor
!!!Listening/dance:	listening
!!!:	*B-:
!!!One_Mode:	no
**kern
*thru
*I"P1
*clefG2
*>A
*k[b-e-]
*B-:
!LO:TX:a:i:t=Bb-major
=22!|:
16B-LL
(16b-
16a)
16b-JJ
16dd'LL
(16b-
16a)
16b-'JJ
=23
16ff'LL
(16b-
16a)
16b-'JJ
16dd'LL
(16b-
16a)
16b-'JJ
=24
16b-'LL
16ff'
16een'
16ff'JJ
16ee-X'LL
16ff'
16dd'
16ff'JJ
=25
16dd-X'LL
16ff'
16cc'
16ff'JJ
16bn'LL
16ff'
16b-X'
16ff'JJ
=26
16aLL
(16f
16g)
(16aJJ
16b-LL)
(16cc
16ddn)
(16ee-JJ
=27
16ffLL)
(16gg
16aa-X)
(16ggJJ
16ffLL)
(16ee-
16dd)
(16ccJJ
*>C1
*B-:
!LO:TX:a:i:t=Bb-major
16B-LL
(16b-
16a)
16b-JJ
16dd'LL
(16b-
16a)
16b-'JJ
=23
16ff'LL
(16b-
16a)
16b-'JJ
16dd'LL
(16b-
16a)
16b-'JJ
=24
16b-'LL
16ff'
16een'
16ff'JJ
16ee-X'LL
16ff'
16dd'
16ff'JJ
=25
16dd-X'LL
16ff'
16cc'
16ff'JJ
16bn'LL
16ff'
16b-X'
16ff'JJ
=26
16aLL
(16f
16g)
(16aJJ
16b-LL)
(16cc
16ddn)
(16ee-JJ
=27
16ffLL)
(16gg
16aa-X)
(16ggJJ
16ffLL)
(16ee-
16dd)
(16ccJJ
*>C2
=30:|!
16aLL
(16aa
16gg)
(16ffJJ
16ee-LL)
(16cc
16a)
16ccJJ
=31
(16ccLL
16b-JJ)
4b-
8r
*>D
!!!End-Modulation
*-
